Numix-Light-GalliumOS/24/panel/diodon-panel.svg

<?xml version="1.0" encoding="UTF-8" standalone="no"?>
<svg
   xmlns:dc="http://purl.org/dc/elements/1.1/"
   xmlns:cc="http://creativecommons.org/ns#"
   xmlns:rdf="http://www.w3.org/1999/02/22-rdf-syntax-ns#"
   xmlns:svg="http://www.w3.org/2000/svg"
   xmlns="http://www.w3.org/2000/svg"
   xmlns:sodipodi="http://sodipodi.sourceforge.net/DTD/sodipodi-0.dtd"
   xmlns:inkscape="http://www.inkscape.org/namespaces/inkscape"
   width="24"
   height="24"
   viewBox="0 0 24 24"
   id="svg2"
   version="1.1"
   inkscape:version="0.91 r"
   sodipodi:docname="diodon-panel.svg">
  <metadata
     id="metadata14">
    <rdf:RDF>
      <cc:Work
         rdf:about="">
        <dc:format>image/svg+xml</dc:format>
        <dc:type
           rdf:resource="http://purl.org/dc/dcmitype/StillImage" />
      </cc:Work>
    </rdf:RDF>
  </metadata>
  <defs
     id="defs12" />
  <sodipodi:namedview
     pagecolor="#ffffff"
     bordercolor="#666666"
     borderopacity="1"
     objecttolerance="10"
     gridtolerance="10"
     guidetolerance="10"
     inkscape:pageopacity="0"
     inkscape:pageshadow="2"
     inkscape:window-width="1366"
     inkscape:window-height="747"
     id="namedview10"
     showgrid="false"
     inkscape:zoom="19.666667"
     inkscape:cx="3.1566258"
     inkscape:cy="7.8534302"
     inkscape:window-x="0"
     inkscape:window-y="21"
     inkscape:window-maximized="1"
     inkscape:current-layer="svg2" />
  <path
     style="fill:#353535;fill-opacity:1"
     inkscape:connector-curvature="0"
     id="path8"
     d="m 20,17.12086 c 0,0.816472 -0.300805,1.500447 -0.902416,2.051925 C 18.495972,19.724262 17.747538,20 16.855864,20 15.828111,20 14.932856,19.652641 14.170099,18.954343 L 5.2891675,10.825425 C 4.4297225,10.023277 4,9.077887 4,7.9892567 4,6.8791398 4.4189792,5.937332 5.2569376,5.1602498 6.0948969,4.3867493 7.1190684,4 8.3294539,4 9.5362577,4 10.574753,4.3939118 11.452104,5.1817364 l 6.914951,6.3455686 c 0.0752,0.07163 0.114592,0.146822 0.114592,0.232766 0,0.111012 -0.118173,0.272158 -0.350939,0.487019 -0.232767,0.211281 -0.408236,0.318712 -0.529991,0.318712 -0.100269,0 -0.186214,-0.03581 -0.261415,-0.103851 L 10.410027,6.1056393 C 9.8084153,5.5684867 9.1208593,5.2963291 8.343778,5.2963291 c -0.8093112,0 -1.4897047,0.2649951 -2.0483439,0.7878245 -0.5550585,0.5228295 -0.8343776,1.1530892 -0.8343776,1.8943598 0,0.7341091 0.2900624,1.3643686 0.8701874,1.8943606 l 8.8701891,8.13966 c 0.479856,0.436884 1.031334,0.658908 1.654431,0.658908 0.4906,0 0.891674,-0.146822 1.213966,-0.440466 0.318711,-0.293644 0.479857,-0.662488 0.479857,-1.110116 0,-0.572963 -0.239929,-1.077888 -0.719785,-1.518353 L 11.187108,9.518353 C 10.990153,9.350045 10.760967,9.2676809 10.503134,9.2676809 c -0.222024,0 -0.404656,0.064459 -0.5478971,0.1969561 -0.1468216,0.132498 -0.218442,0.300806 -0.218442,0.504924 0,0.222024 0.096688,0.429722 0.2864821,0.615936 l 4.683975,4.293644 c 0.07878,0.07162 0.114592,0.146821 0.114592,0.232766 0,0.111012 -0.118173,0.275738 -0.354521,0.4906 -0.236347,0.214861 -0.415398,0.325873 -0.537153,0.325873 -0.08953,0 -0.17547,-0.03581 -0.250671,-0.107431 L 8.9955233,11.527305 C 8.515667,11.104745 8.2757384,10.581916 8.2757384,9.969561 c 0,-0.572963 0.2148612,-1.0599822 0.6481645,-1.4574757 0.436885,-0.3974926 0.9668761,-0.594449 1.5899731,-0.594449 0.669651,0 1.239034,0.218442 1.704566,0.6589078 l 6.639213,6.0841549 C 19.620412,15.344674 20,16.164727 20,17.12086 Z" />
</svg>

<svg xmlns="http://www.w3.org/2000/svg" viewBox="0 0 24 24">
 <path d="m 20 17.12 c 0 0.816 -0.301 1.5 -0.902 2.052 c -0.602 0.551 -1.35 0.827 -2.242 0.827 -1.028 0 -1.923 -0.347 -2.686 -1.046 l -8.881 -8.129 c -0.859 -0.802 -1.289 -1.748 -1.289 -2.836 0 -1.11 0.419 -2.052 1.257 -2.829 0.838 -0.774 1.862 -1.16 3.073 -1.16 1.207 0 2.245 0.394 3.123 1.182 l 6.915 6.346 c 0.075 0.072 0.115 0.147 0.115 0.233 0 0.111 -0.118 0.272 -0.351 0.487 -0.233 0.211 -0.408 0.319 -0.53 0.319 -0.1 0 -0.186 -0.036 -0.261 -0.104 l -6.929 -6.356 c -0.602 -0.537 -1.289 -0.809 -2.066 -0.809 c -0.809 0 -1.49 0.265 -2.048 0.788 -0.555 0.523 -0.834 1.153 -0.834 1.894 0 0.734 0.29 1.364 0.87 1.894 l 8.87 8.14 c 0.48 0.437 1.031 0.659 1.654 0.659 0.491 0 0.892 -0.147 1.214 -0.44 0.319 -0.294 0.48 -0.662 0.48 -1.11 0 -0.573 -0.24 -1.078 -0.72 -1.518 l -6.643 -6.084 c -0.197 -0.168 -0.426 -0.251 -0.684 -0.251 c -0.222 0 -0.405 0.064 -0.548 0.197 -0.147 0.132 -0.218 0.301 -0.218 0.505 0 0.222 0.097 0.43 0.286 0.616 l 4.684 4.294 c 0.079 0.072 0.115 0.147 0.115 0.233 0 0.111 -0.118 0.276 -0.355 0.491 -0.236 0.215 -0.415 0.326 -0.537 0.326 -0.09 0 -0.175 -0.036 -0.251 -0.107 l -4.684 -4.294 c -0.48 -0.423 -0.72 -0.945 -0.72 -1.558 c 0 -0.573 0.215 -1.06 0.648 -1.457 0.437 -0.397 0.967 -0.594 1.59 -0.594 0.67 0 1.239 0.218 1.705 0.659 l 6.639 6.084 c 0.763 0.684 1.142 1.504 1.142 2.46" style="fill:#353535;fill-opacity:1"/>
</svg>
